picto/car-hire-left-it.svg

<svg class="color-immutable" width="24" height="24" viewBox="0 0 24 24" fill="none" xmlns="http://www.w3.org/2000/svg"><path d="M0 22.5V1.5C0 0.675 0.675 0 1.5 0H22.5C23.325 0 24 0.675 24 1.5V22.5C24 23.325 23.325 24 22.5 24H1.5C0.675 24 0 23.325 0 22.5Z" fill="#2D327D"/><path d="M3.345 16.714C3.15 16.73 3 16.892 3 17.087V19.425C3 19.632 3.168 19.8 3.376 19.8H3.788V19.369C3.788 18.127 4.795 17.118 6.037 17.118C7.279 17.118 8.287 18.126 8.287 19.369V19.8H15.749V19.369C15.749 18.127 16.757 17.118 17.999 17.118C19.24 17.118 20.249 18.126 20.249 19.369V19.8H20.623C20.83 19.8 20.999 19.632 20.999 19.425V16.781C20.999 16.484 20.879 16.197 20.669 15.986L18.418 13.736C18.207 13.525 17.921 13.406 17.623 13.406H11.14C10.842 13.406 10.556 13.525 10.345 13.736L7.731 16.35L3.345 16.714ZM14.627 16.032V14.495C14.627 14.288 14.795 14.119 15.002 14.119H17.586C17.685 14.119 17.781 14.159 17.852 14.229L19.646 16.023C19.687 16.065 19.711 16.122 19.711 16.182C19.711 16.306 19.611 16.407 19.486 16.407H15.002C14.795 16.406 14.627 16.239 14.627 16.032ZM9.279 16.406C9.154 16.406 9.053 16.306 9.053 16.181C9.053 16.122 9.078 16.064 9.119 16.022L10.913 14.228C10.984 14.158 11.079 14.118 11.179 14.118H13.54C13.747 14.118 13.915 14.287 13.915 14.494C13.915 14.494 13.915 14.494 13.915 14.495L13.912 16.032C13.912 16.238 13.745 16.405 13.538 16.405H9.279V16.406Z" fill="white"/><path fill-rule="evenodd" clip-rule="evenodd" d="M17.995 20.222C17.477 20.222 17.058 19.802 17.058 19.284C17.058 18.766 17.478 18.346 17.995 18.346C18.512 18.346 18.932 18.766 18.932 19.284C18.933 19.802 18.513 20.222 17.995 20.222ZM17.995 17.578C17.054 17.578 16.288 18.342 16.288 19.284C16.288 20.226 17.054 20.991 17.995 20.991C18.937 20.991 19.702 20.226 19.702 19.284C19.702 18.342 18.937 17.578 17.995 17.578Z" fill="white"/><path fill-rule="evenodd" clip-rule="evenodd" d="M6.034 20.222C5.516 20.222 5.098 19.802 5.098 19.284C5.098 18.766 5.517 18.346 6.034 18.346C6.552 18.346 6.972 18.766 6.972 19.284C6.973 19.802 6.553 20.222 6.034 20.222ZM6.035 17.578C5.093 17.578 4.328 18.342 4.328 19.284C4.328 20.226 5.093 20.991 6.035 20.991C6.977 20.991 7.742 20.226 7.742 19.284C7.742 18.342 6.977 17.578 6.035 17.578Z" fill="white"/><path d="M4.901 3V5.249H4.407L3.466 3.717L3.472 5.249H3V3H3.5L4.435 4.529L4.429 3H4.901Z" fill="white"/><path d="M6.10701 3.52299C6.35101 3.52299 6.55001 3.604 6.70501 3.766C6.85801 3.926 6.93401 4.139 6.93401 4.406C6.93401 4.682 6.85201 4.90199 6.68901 5.06599C6.53701 5.21799 6.33801 5.295 6.09301 5.295C5.83201 5.295 5.62301 5.20999 5.46901 5.03999C5.32101 4.87699 5.24701 4.66699 5.24701 4.40899C5.24701 4.15499 5.31901 3.948 5.46201 3.789C5.62101 3.612 5.83601 3.52299 6.10701 3.52299ZM6.08401 3.871C5.96601 3.871 5.87201 3.91899 5.80301 4.01399C5.73201 4.10999 5.69601 4.24199 5.69601 4.40899C5.69601 4.58199 5.73101 4.715 5.80101 4.807C5.87301 4.9 5.97101 4.947 6.09501 4.947C6.21101 4.947 6.30301 4.90399 6.37001 4.81899C6.44701 4.72499 6.48501 4.588 6.48501 4.40799C6.48501 4.24 6.45101 4.10899 6.38301 4.01599C6.31301 3.91899 6.21301 3.871 6.08401 3.871Z" fill="white"/><path d="M7.68199 3V5.249H7.23599V3H7.68199Z" fill="white"/><path d="M9.55399 4.726C9.52999 4.82 9.48799 4.909 9.42599 4.992C9.27799 5.194 9.06599 5.295 8.78899 5.295C8.53899 5.295 8.33799 5.216 8.18799 5.058C8.11399 4.981 8.05799 4.888 8.01899 4.78C7.97699 4.664 7.95599 4.543 7.95599 4.417C7.95599 4.173 8.02599 3.968 8.16699 3.802C8.32399 3.616 8.52699 3.524 8.77599 3.524C8.97699 3.524 9.14799 3.586 9.28999 3.71C9.39199 3.799 9.46499 3.909 9.51099 4.04C9.55699 4.17 9.57999 4.334 9.57999 4.532H8.40999C8.41399 4.614 8.42699 4.682 8.44799 4.737C8.50799 4.884 8.62299 4.957 8.79299 4.957C8.87599 4.957 8.94399 4.939 8.99599 4.902C9.04799 4.866 9.09099 4.807 9.12499 4.726H9.55399ZM9.12499 4.232C9.11599 4.151 9.09799 4.084 9.06899 4.031C9.04099 3.978 8.99999 3.937 8.94699 3.906C8.89399 3.875 8.83699 3.86 8.77399 3.86C8.67499 3.86 8.59299 3.893 8.52799 3.96C8.46299 4.026 8.42499 4.117 8.41299 4.232H9.12499Z" fill="white"/><path d="M11.423 3.569V5.049C11.423 5.18 11.415 5.285 11.398 5.364C11.382 5.442 11.353 5.514 11.313 5.579C11.184 5.784 10.952 5.887 10.618 5.887C10.152 5.887 9.89799 5.711 9.85399 5.359H10.303C10.334 5.499 10.442 5.57 10.628 5.57C10.77 5.57 10.868 5.53 10.925 5.45C10.969 5.386 10.991 5.284 10.991 5.142L10.993 4.934C10.878 5.11 10.712 5.199 10.495 5.199C10.285 5.199 10.117 5.125 9.99199 4.978C9.86299 4.827 9.79999 4.625 9.79999 4.37C9.79999 4.116 9.86399 3.912 9.99099 3.758C10.123 3.599 10.297 3.52 10.512 3.52C10.624 3.52 10.717 3.541 10.792 3.583C10.867 3.625 10.936 3.695 10.998 3.794V3.569H11.423ZM10.612 3.886C10.487 3.886 10.392 3.938 10.327 4.043C10.275 4.127 10.249 4.234 10.249 4.363C10.249 4.527 10.287 4.652 10.363 4.737C10.429 4.813 10.514 4.851 10.62 4.851C10.753 4.851 10.853 4.795 10.92 4.683C10.971 4.597 10.997 4.488 10.997 4.357C10.997 4.199 10.958 4.077 10.879 3.991C10.813 3.921 10.725 3.886 10.612 3.886Z" fill="white"/><path d="M13.353 3.569V5.049C13.353 5.18 13.345 5.285 13.328 5.364C13.312 5.442 13.283 5.514 13.243 5.579C13.114 5.784 12.882 5.887 12.548 5.887C12.082 5.887 11.828 5.711 11.784 5.359H12.233C12.264 5.499 12.372 5.57 12.558 5.57C12.7 5.57 12.798 5.53 12.855 5.45C12.899 5.386 12.921 5.284 12.921 5.142L12.923 4.934C12.808 5.11 12.642 5.199 12.425 5.199C12.215 5.199 12.047 5.125 11.922 4.978C11.795 4.828 11.731 4.626 11.731 4.372C11.731 4.118 11.795 3.914 11.922 3.76C12.054 3.601 12.228 3.522 12.443 3.522C12.555 3.522 12.648 3.543 12.723 3.585C12.798 3.627 12.867 3.697 12.929 3.796V3.569H13.353ZM12.542 3.886C12.417 3.886 12.322 3.938 12.257 4.043C12.205 4.127 12.179 4.234 12.179 4.363C12.179 4.527 12.217 4.652 12.293 4.737C12.359 4.813 12.444 4.851 12.55 4.851C12.683 4.851 12.783 4.795 12.85 4.683C12.901 4.597 12.927 4.488 12.927 4.357C12.927 4.199 12.888 4.077 12.809 3.991C12.744 3.921 12.655 3.886 12.542 3.886Z" fill="white"/><path d="M14.167 3V3.401H13.72V3H14.167ZM14.167 3.572V5.249H13.72V3.572H14.167Z" fill="white"/><path d="M15.328 3.52299C15.572 3.52299 15.771 3.604 15.926 3.766C16.079 3.926 16.155 4.139 16.155 4.406C16.155 4.682 16.073 4.90199 15.91 5.06599C15.757 5.21899 15.558 5.295 15.313 5.295C15.052 5.295 14.843 5.20999 14.689 5.03999C14.541 4.878 14.468 4.66799 14.468 4.40899C14.468 4.15499 14.54 3.948 14.683 3.789C14.842 3.612 15.057 3.52299 15.328 3.52299ZM15.305 3.871C15.187 3.871 15.093 3.91899 15.024 4.01399C14.953 4.10999 14.918 4.24199 14.918 4.40899C14.918 4.58199 14.953 4.715 15.023 4.807C15.095 4.9 15.193 4.947 15.317 4.947C15.433 4.947 15.525 4.90399 15.592 4.81899C15.669 4.72499 15.707 4.588 15.707 4.40799C15.707 4.24 15.673 4.10899 15.605 4.01599C15.534 3.91899 15.434 3.871 15.305 3.871Z" fill="white"/></svg>

<svg class="color-immutable" width="24" height="24" viewBox="0 0 24 24" fill="none" xmlns="http://www.w3.org/2000/svg"><g clip-path="url(#a)"><path d="M0 22.5v-21C0 .675.675 0 1.5 0h21c.825 0 1.5.675 1.5 1.5v21c0 .825-.675 1.5-1.5 1.5h-21C.675 24 0 23.325 0 22.5Z" fill="#2D327D"/><path d="M3.345 16.714a.375.375 0 0 0-.345.373v2.338c0 .207.168.375.376.375h.412v-.431a2.25 2.25 0 0 1 2.249-2.251 2.251 2.251 0 0 1 2.25 2.251v.431h7.462v-.431a2.252 2.252 0 0 1 2.25-2.251 2.252 2.252 0 0 1 2.25 2.251v.431h.374a.376.376 0 0 0 .376-.375v-2.644c0-.297-.12-.584-.33-.795l-2.251-2.25a1.125 1.125 0 0 0-.795-.33H11.14c-.298 0-.584.119-.795.33L7.731 16.35l-4.386.364Zm11.282-.682v-1.537c0-.207.168-.376.375-.376h2.584a.38.38 0 0 1 .266.11l1.794 1.794a.225.225 0 0 1-.16.384h-4.484a.376.376 0 0 1-.375-.375Zm-5.348.374a.225.225 0 0 1-.16-.384l1.794-1.794a.379.379 0 0 1 .266-.11h2.361c.207 0 .375.169.375.376v.001l-.003 1.537a.373.373 0 0 1-.374.373H9.279v.001Z" fill="#fff"/><path fill-rule="evenodd" clip-rule="evenodd" d="M17.995 20.222a.937.937 0 1 1 0-1.874.937.937 0 0 1 0 1.874Zm0-2.644a1.708 1.708 0 0 0 0 3.413 1.707 1.707 0 0 0 0-3.413ZM6.034 20.222a.937.937 0 1 1 .002-1.878.937.937 0 0 1-.002 1.878Zm.001-2.644a1.707 1.707 0 1 0 0 3.414 1.707 1.707 0 0 0 0-3.414Z" fill="#fff"/><path d="M4.901 3v2.249h-.494l-.941-1.532.006 1.532H3V3h.5l.935 1.529L4.429 3h.472ZM6.107 3.523a.79.79 0 0 1 .598.243c.153.16.229.373.229.64 0 .276-.082.496-.245.66a.807.807 0 0 1-.596.229c-.261 0-.47-.085-.624-.255-.148-.163-.222-.373-.222-.631 0-.254.072-.461.215-.62.159-.177.374-.266.645-.266Zm-.023.348a.33.33 0 0 0-.281.143.652.652 0 0 0-.107.395c0 .173.035.306.105.398.072.093.17.14.294.14a.332.332 0 0 0 .275-.128c.077-.094.115-.231.115-.411 0-.168-.034-.299-.102-.392a.347.347 0 0 0-.299-.145ZM7.682 3v2.249h-.446V3h.446ZM9.554 4.726a.752.752 0 0 1-.128.266c-.148.202-.36.303-.637.303-.25 0-.451-.079-.601-.237a.775.775 0 0 1-.169-.278 1.058 1.058 0 0 1-.063-.363c0-.244.07-.449.211-.615a.76.76 0 0 1 .609-.278.754.754 0 0 1 .735.516c.046.13.069.294.069.492H8.41c.004.082.017.15.038.205.06.147.175.22.345.22a.343.343 0 0 0 .203-.055.39.39 0 0 0 .129-.176h.429Zm-.429-.494a.544.544 0 0 0-.056-.201.334.334 0 0 0-.295-.171.328.328 0 0 0-.246.1.44.44 0 0 0-.115.272h.712ZM11.423 3.569v1.48c0 .131-.008.236-.025.315a.662.662 0 0 1-.085.215c-.129.205-.361.308-.695.308-.466 0-.72-.176-.764-.528h.449c.031.14.139.211.325.211.142 0 .24-.04.297-.12.044-.064.066-.166.066-.308l.002-.208a.56.56 0 0 1-.498.265.627.627 0 0 1-.503-.221c-.129-.151-.192-.353-.192-.608 0-.254.064-.458.191-.612a.644.644 0 0 1 .521-.238c.112 0 .205.021.28.063a.596.596 0 0 1 .206.211v-.225h.425Zm-.811.317a.315.315 0 0 0-.285.157.6.6 0 0 0-.078.32c0 .164.038.289.114.374a.323.323 0 0 0 .257.114.328.328 0 0 0 .3-.168.632.632 0 0 0 .077-.326c0-.158-.039-.28-.118-.366a.348.348 0 0 0-.267-.105ZM13.353 3.569v1.48c0 .131-.008.236-.025.315a.662.662 0 0 1-.085.215c-.129.205-.361.308-.695.308-.466 0-.72-.176-.764-.528h.449c.031.14.139.211.325.211.142 0 .24-.04.297-.12.044-.064.066-.166.066-.308l.002-.208a.56.56 0 0 1-.498.265.627.627 0 0 1-.503-.221c-.127-.15-.191-.352-.191-.606s.064-.458.191-.612a.644.644 0 0 1 .521-.238c.112 0 .205.021.28.063a.596.596 0 0 1 .206.211v-.227h.424Zm-.811.317a.315.315 0 0 0-.285.157.6.6 0 0 0-.078.32c0 .164.038.289.114.374a.323.323 0 0 0 .257.114.328.328 0 0 0 .3-.168.632.632 0 0 0 .077-.326c0-.158-.039-.28-.118-.366a.346.346 0 0 0-.267-.105ZM14.167 3v.401h-.447V3h.447Zm0 .572v1.677h-.447V3.572h.447ZM15.328 3.523a.79.79 0 0 1 .598.243c.153.16.229.373.229.64 0 .276-.082.496-.245.66a.807.807 0 0 1-.597.229c-.261 0-.47-.085-.624-.255-.148-.162-.221-.372-.221-.631 0-.254.072-.461.215-.62.159-.177.374-.266.645-.266Zm-.023.348a.33.33 0 0 0-.281.143.652.652 0 0 0-.106.395c0 .173.035.306.105.398.072.093.17.14.294.14a.332.332 0 0 0 .275-.128c.077-.094.115-.231.115-.411 0-.168-.034-.299-.102-.392a.35.35 0 0 0-.3-.145Z" fill="#fff"/></g><defs><clipPath id="a"><path fill="#fff" d="M0 0h24v24H0z"/></clipPath></defs></svg>
